X:1
T:Alexander's Ragtime Band
T:Alexander's Ragtime Band
T: Words and Music By Irving Berlin 
T:Copyright 1911 by Ted Snyder Co
T:Copyright 1911 by Ted Snyder Co
T:Copyright 1911 by Ted Snyder Co
T:Copyright 1911 by Ted Snyder Co
T:Copyright 1911 by Ted Snyder Co
T:Copyright 1911 by Ted Snyder Co
C:Irving Berlin
Z:Copyright 1911 by Ted Snyder Co
%%score 1 { ( 2 5 ) | ( 3 4 ) }
L:1/8
Q:1/4=150
M:4/4
K:C
V:1 treble nm="Voice"
V:2 treble nm="Piano"
V:5 treble 
V:3 bass 
V:4 bass 
V:1
"^Moderato" z2 | z8 | z8 | z8 | z8 || z8 | z8 || z2 E3/2 ^D/ E G3 | z2 E3/2 ^D/ E G3 | %9
w: |||||||Oh, ma hon ey|Oh, ma hon ey|
w: |||||||Oh, ma hon ey|Oh, ma hon ey|
 z2 A3/2 ^G/ A c2 A | G2 F2 E2 D2 | z2 E3/2 ^D/ E G3 | z2 E3/2 ^D/ E G3 | z2 D3/2 E/ ^F3/2 E/ D2 | %14
w: Bet ter hur ry and|let's me an der,|Ain't you go in,|Ain't you go in'|To the lead er man,|
w: There's a fid dle with|notes that scee ches,|Like a chick en|Like a chick en|And the clar in et|
 z2 G3/2 A/ B3/2 A/ G2 | z2 E3/2 ^D/ E G3 | z2 E3/2 ^D/ E G3 | z2 A3/2 ^G/ A c2 A | G2 F2 E2 D2 | %19
w: rag ged me ter man?|Oh, ma hon ey|Oh, ma hon ey|Let me take you to|Al ex an der's|
w: is a col ored pet|Come and lis ten|Come and lis ten|To a class i cal|band what's peach es,|
 C4 G4 | F4 A4 | z2 G3/2 A/ B3/2 A/ G2 | c4- c3/2 ||[K:F]"^CHORUS" ^G/ A3/2 G/ |: %24
w: grand stand,|brass band,|Ain't you com in' a|long?.......... *|Come on and|
w: come now,|some how|Bet ter hur ry a|long............ *||
 A4- A3/2 ^G/ A3/2 G/ | A4- A2 A3/2 ^G/ | A2 G2 E2 C2 | F4- F3/2 ^c/ d3/2 c/ | %28
w: hear,.... * Come on and|hear,.... * Al ex|an der's rag time|band,.... * Come on and|
w: ||||
 d4- d3/2 ^c/ d3/2 c/ | d4- d2 d3/2 ^c/ | d2 B2 F2 B2 | d4- d2 A3/2 B/ | c c d A c2 d A | %33
w: hear,.... * Come on and|hear,.... * It's the|best band in the|land,.... * They can|play a bu gle call like you|
w: |||||
 c c d A c2 z2 | F2 A C F2 A C | F F A C F2 z2 | G2 G4 A2 | =B2 G2 A2 B2 | c8 | %39
w: nev er heard be fore,|So nat ur al that you|want to go to war,|That's just the|best est band what|am,|
w: ||||||
 B A G2 z3/2 ^G/ A3/2 G/ | A4- A3/2 ^G/ A3/2 G/ | A4- A2 A3/2 ^G/ | A2 G2 E2 C2 | %43
w: hon ey lamb, Come on a|long,..... * Come on a|long,..... * Let me|take you by the|
w: ||||
 F4- F3/2 ^c/ d3/2 c/ | d4- d3/2 ^c/ d3/2 c/ | d4- d2 d3/2 ^c/ | d2 B2 F2 B2 | d4- d A B =B | %48
w: hand,..... * Up to the|man,.... * Up to the|man,..... * who's the|lead er of the|band,..... * And if you|
w: |||||
 c2 c2 c2 A2 | G2 F2 A2 G2 | F4 f4 | d2 f2- f3/2 =B/ c3/2 B/ | c4- c3/2 =B/ c3/2 B/ | c4- c d2 ^c | %54
w: care to hear the|Swa nee Riv er|played in|rag time,... * Come on and|hear,..... * Come on and|hear........... * Al ex|
w: ||||||
 d2 c2 A2 G2 |1 F4- F3/2 ^G/ A3/2 G/ :|2 F4- F2 z2 |] %57
w: an der's rag time|band.......... * Come on and,|band. *|
w: |||
V:2
!f! z2 | z2 [CE]>^D [CE] [EG]3 | z2 [CE]>^D [CE] [EG]3 | z2 [FA]>^G [FA]>B [Ac]>[Ad] | %4
 [^GBe]4 [=GBfg]2 z2 ||!p! z2"^Till ready" [CE]>^D [CE] [EG]3 | z [FBd]2 [EB^c] [FBd]2 z2 || %7
!p! z2 [CE]>^D [CE] [EG]3 | z2 [CE]>^D [CE] [EG]3 | z2 [FA]>^G [FA] [Ac]2 [FA] | %10
 G2 ([B,F]2 [B,E]2 [B,D]2) | z2 [CE]>^D [CE] [EG]3 | z2 [CE]>^D [CE] [EG]3 | %13
 z2 [CD]>[CE] [C^F]>[CE] [CD]2 | z2 [=FG]>[FA] [FB]>[FA] [FG]2 | z2 [CE]>^D [CE] [EG]3 | %16
 z2 [CE]>^D [CE] [EG]3 | z2 [FA]>^G [FA] [Ac]2 [FA] | G2 ([B,F]2 [B,E]2 [B,D]2) | C4 G4 | %20
 F4 [Ac_ea]2 z2 | z2 [EG]>A [FB]>A [FG]2 | [Ec]2 [E_B]2 [EG]3/2 ||[K:F] [^Gc]<A[Gc]/ |: %24
!p!!f!"_-" [Ac]4- [Ac]>[^Gc]A>[Gc] | [Ac]4- [Ac]2 [Ac]>^G | [Ac]2 G2 E2 C2 | F>GA>B c>[^cf]d>[cf] | %28
 [df]4- [df]>[^cf]d>[cf] | [df]4- [df]2 [df]>^c | [df]2 B2 F2 [FB]2 | [FBd]>F E>F ^F>G A>B | %32
 [FAc]c[FAd]A [FAc]2 [FAd]A | [FAc]c[FAd]A [FAc]2 z2 | z2 [CFA]2 z2 [FAc]2 | %35
 z2 [Acf]2 [FAc]2 [CD_A]2 | [CFA]2 [CG]4 [C^FA]2 | [DF=B]2 [FG]2 [FA]2 [FB]2 | %38
 [Ec]>de>f [_Bg]>ed>c | [EB][EA] [EG]2 z3/2 [^Gc]<A[Gc]/ | [Ac]4- [Ac]>[^Gc]A>[Gc] | %41
 [Ac]4- [Ac]2 [Ac]>^G | [Ac]2 G2 E2 C2 | F>GA>B c>[^cf]d>[cf] | [df]4- [df]>[^cf]d>[cf] | %45
 [df]4- [df]2 [df]>^c | [df]2 B2 F2 [FB]2 | [FBd]FEF GAB=B | [_Ec]2 [Ec]2 [Ec]2 [EFA]2 | %49
 [C_EA]2 [CEF]2 [EFA]2 [CEG]2 | [DF]4 [FBdf]4 | [F=Bd]2 [FBdf]2- [FBdf]>=B[Ac]>B | %52
 [FAc]4- [FAc]>=B[Ac]>B | [Ac]4- [Ac] [Fd]2 [F=B^c] | [E_Bd]2 [EBc]2 [EA]2 [EG]2 |1 %55
 [CF]2 [DFc]2 [EGc]>[^Gc]A>[Gc] :|2 [CF]4 [FAcf]2 z2 |] %57
V:3
 [G,,,G,,]2 | [C,,C,]2 [E,G,]2 G,,2 [E,G,]2 | [C,,C,]2 [E,G,]2 [C,,C,]2 [E,_B,C]2 | %3
 [F,,F,]2 [F,A,C]2 [F,,F,]2 [F,,F,]2 | [E,,E,]4 [D,,D,]2 [G,,,G,,]2 || %5
 [C,,C,]2 [E,G,]2 G,,2 [E,G,C]2 | [D,,D,]2 [F,G,B,]2 [G,,G,]2 [G,,,G,,]2 || %7
 [C,,C,]2 [E,G,]2 [G,,,G,,]2 [E,G,C]2 | [C,,C,]2 [E,G,]2 [C,,C,]2 [E,_B,C]2 | %9
 [F,,F,]2 [F,A,C]2 [F,,F,]2 [F,A,C]2 | G,,4- G,,2 z2 | [C,,C,]2 [E,G,]2 [G,,,G,,]2 [E,G,C]2 | %12
 [C,,C,]2 [E,G,]2 [C,,C,]2 [E,_B,C]2 | A,,4 D,2 D,2 | D,4 G,2 G,2 | %15
 [C,,C,]2 [E,G,]2 [G,,,G,,]2 [E,G,C]2 | [C,,C,]2 [E,G,]2 [C,,C,]2 [E,_B,C]2 | %17
 [F,,F,]2 [F,A,C]2 [F,,F,]2 [A,C]2 | G,,4- G,,2 z2 | [C,,C,]4 [_B,,,_B,,]4 | %20
 [A,,,A,,]4 [^F,,,^F,,]2 [^F,,^F,]2 | [G,,G,]2 [E,G,C]2 [G,,G,]2 [F,G,B,]2 | C,4- C,3/2 || %23
[K:F] z/ z2 |: [F,,F,]2 [F,A,C]2 [E,,E,]2 [F,A,C]2 | [D,,D,]2 [F,A,C]2 [C,,C,]2 [F,A,C]2 | %26
 [E,,E,]2 [E,B,C]2 [C,,C,]2 [E,B,]2 | [F,,F,]2 [F,A,C]2 [F,,F,]2 [F,A,C]2 | %28
 [B,,B,]2 [F,B,D]2 [A,,A,]2 [F,B,D]2 | [G,,G,]2 [F,B,D]2 [F,,F,]2 [F,B,D]2 | %30
 [B,,,B,,]2 [F,B,D]2 [F,,F,]2 [F,B,D]2 | [B,,,B,,]2 [F,B,D]2 [F,,F,]2 [F,B,D]2 | %32
 [F,,F,]2 [F,A,C]2 [C,,C,]2 [F,A,C]2 | [F,,F,]2 [F,A,C]2 F,C,D,E, | F,2 A,C, F,2 A,C, | %35
 F,F,A,C, F,2 [F,,F,]2 | [E,,E,]2 [E,,E,]4 [_E,,_E,]2 | [D,,D,]2 [F,G,=B,]2 [G,,G,]2 [F,G,B,]2 | %38
 [C,,C,]2 [E,B,C]2 [E,,E,]2 [E,B,C]2 | G,4 [C,,C,] z z2 | [F,,F,]2 [F,A,C]2 [E,,E,]2 [F,A,C]2 | %41
 [D,,D,]2 [F,A,C]2 [C,,C,]2 [F,A,C]2 | [E,,E,]2 [E,B,C]2 [C,,C,]2 [E,B,]2 | %43
 [F,,F,]2 [F,A,C]2 [F,,F,]2 [F,A,C]2 | [B,,B,]2 [F,B,D]2 [A,,A,]2 [F,B,D]2 | %45
 [G,,G,]2 [F,B,D]2 [F,,F,]2 [F,B,D]2 | [B,,,B,,]2 [F,B,D]2 [F,,F,]2 [F,B,D]2 | %47
 [B,,,B,,]2 [F,B,D]2 [F,,F,]2 [F,B,D]2 | [F,,F,]2 [G,,G,]2 [A,,A,]2 [C,C]2 | %49
 [B,,B,]2 [A,,A,]2 [C,C]2 [A,,A,]2 | [B,,B,]2 [C,C]2 [B,,B,]2 [A,,A,]2 | %51
 [^G,,^G,]2 [G,,G,]2- [G,,G,]3/2 z/ z2 | z3/2 [F,,F,]<[E,,E,][D,,D,]/ [C,,C,]4 | %53
 z3/2 [F,,F,]<[E,,E,][D,,D,]/ [C,,C,] [A,,A,]2 [_A,,_A,] | [G,,G,]2 [E,B,C]2 [C,C]2 [C,B,]2 |1 %55
 [F,A,]2 [C,A,]2 [C,B,] z z2 :|2 [F,A,]2 C,2 [F,,F,]2 z2 |] %57
V:4
 x2 | x8 | x8 | x8 | x8 || x8 | x8 || x8 | x8 | x8 | z2 (A,2 G,2 F,2) | x8 | x8 | %13
 z2 ^F,>A, A,>G, F,2 | z2 B,>C D>C B,2 | x8 | x8 | x8 | z2 (A,2 G,2 F,2) | x8 | x8 | x8 | %22
 G,2 D2 _B,3/2 ||[K:F] x5/2 |: x8 | x8 | x8 | x8 | x8 | x8 | x8 | x8 | x8 | x8 | x8 | x8 | x8 | %37
 x8 | x8 | DC B,2 x4 | x8 | x8 | x8 | x8 | x8 | x8 | x8 | x8 | x8 | x8 | x8 | x8 | x8 | x8 | x8 |1 %55
 x8 :|2 x8 |] %57
V:5
 x2 | x8 | x8 | x8 | x8 || x8 | x8 || x8 | x8 | x8 | x8 | x8 | x8 | x8 | x8 | x8 | x8 | x8 | x8 | %19
 z2 [EGc]2 z2 [Gce]2 | z2 [cf]2 x4 | x8 | x11/2 ||[K:F] x5/2 |: z3/2 ^g<ag/ a2 x2 | %25
 z3/2 ^g<ag/ a2 x2 | x8 | x8 | z3/2 ^c'<d'c'/ d'2 x2 | z3/2 ^c'<d'c'/ d'2 x2 | x8 | x8 | x8 | x8 | %34
 x8 | x8 | x8 | x8 | x8 | x8 | z3/2 ^g<ag/ a2 x2 | z3/2 ^g<ag/ a2 x2 | x8 | x8 | %44
 z3/2 ^c'<d'c'/ d'2 x2 | z3/2 ^c'<d'c'/ d'2 x2 | x8 | x8 | x8 | x8 | x8 | x8 | x8 | x8 | x8 |1 %55
 x8 :|2 x8 |] %57

